src/assets/icons/letters,simple,serif-v.svg

<svg width="48" height="48" viewBox="0 0 48 48" fill="none" xmlns="http://www.w3.org/2000/svg">
<rect opacity="0.2" x="5" y="5" width="38" height="38" rx="4" fill="black"/>
<path d="M25.0697 30.84L28.9697 20.85C29.3497 19.87 29.6497 19.07 29.8697 18.45C30.1097 17.83 30.2897 17.32 30.4097 16.92C30.5297 16.52 30.6097 16.2 30.6497 15.96C30.6897 15.72 30.7097 15.49 30.7097 15.27C30.7097 14.79 30.5297 14.48 30.1697 14.34C29.8097 14.18 29.0897 14.1 28.0097 14.1V12.9H36.5297V14.1C34.8697 14.1 33.7197 14.91 33.0797 16.53L25.1897 36.3H22.9697L15.7997 18.78C15.3997 17.84 15.0397 17.07 14.7197 16.47C14.3997 15.87 14.0597 15.4 13.6997 15.06C13.3397 14.7 12.9397 14.46 12.4997 14.34C12.0797 14.2 11.5797 14.13 10.9997 14.13V12.9H22.3397V14.13C21.8197 14.15 21.3797 14.18 21.0197 14.22C20.6797 14.26 20.4097 14.33 20.2097 14.43C20.0097 14.51 19.8697 14.63 19.7897 14.79C19.7097 14.93 19.6697 15.11 19.6697 15.33C19.6697 15.61 19.7197 15.94 19.8197 16.32C19.9197 16.7 20.0697 17.16 20.2697 17.7L25.0697 30.84Z" fill="black"/>
</svg>

<svg xmlns="http://www.w3.org/2000/svg" width="48" height="48" fill="none" viewBox="0 0 48 48">
  <rect width="38" height="38" x="5" y="5" fill="#000" opacity=".2" rx="4"/>
  <path fill="#000" d="M25.07 30.84l3.9-9.99c.38-.98.68-1.78.9-2.4.24-.62.42-1.13.54-1.53.12-.4.2-.72.24-.96.04-.24.06-.47.06-.69 0-.48-.18-.79-.54-.93-.36-.16-1.08-.24-2.16-.24v-1.2h8.52v1.2c-1.66 0-2.81.81-3.45 2.43L25.19 36.3h-2.22L15.8 18.78c-.4-.94-.76-1.71-1.08-2.31-.32-.6-.66-1.07-1.02-1.41-.36-.36-.76-.6-1.2-.72-.42-.14-.92-.21-1.5-.21V12.9h11.34v1.23c-.52.02-.96.05-1.32.09-.34.04-.61.11-.81.21-.2.08-.34.2-.42.36-.08.14-.12.32-.12.54 0 .28.05.61.15.99.1.38.25.84.45 1.38l4.8 13.14z"/>
</svg>
